dhis-2/dhis-support/dhis-support-system/src/main/resources/SVGs/surgical_sterilization_negative.svg

<svg width="48" height="48" viewBox="0 0 48 48" fill="none" xmlns="http://www.w3.org/2000/svg">
<path fill-rule="evenodd" clip-rule="evenodd" d="M0 0V47.9994H47.9994V0H0ZM12.1838 4.66404C12.1698 5.99992 12.3398 7.941 12.4178 9.57998C12.4608 10.7689 12.1928 11.7789 12.0658 12.8398L12.0328 14.7128C12.0318 15.0888 12.3738 15.1048 12.6348 15.1128L12.6448 15.7708L10.0329 17.8198L10.0429 16.7518C10.9759 14.0508 10.5569 12.8518 10.0939 11.7009L9.99397 6.85151C10.4529 6.12472 10.9269 5.34753 12.1838 4.66404ZM28.5286 4.66404C29.7836 4.66334 30.8006 5.82833 30.8006 7.26551V7.29481V9.29868L31.3606 9.92758H33.0996L33.6596 9.29868V7.29681H33.6616C33.6606 7.28631 33.6606 7.27601 33.6596 7.26551C33.6596 5.82913 34.6756 4.66464 35.9296 4.66404C37.1835 4.66334 38.2005 5.82833 38.2005 7.26551C38.2005 8.70279 37.1835 9.86768 35.9296 9.86708H35.9255H34.1696L33.8356 10.2289L33.8256 11.0369L33.1496 31.7186L32.2636 32.1386L32.3906 43.3355L32.5156 32.2086L33.1426 31.9276L32.8726 43.3355H32.3906H31.9466C31.8056 38.9175 31.6546 34.0296 31.5716 29.5776L32.5266 28.8726L32.9766 11.0369H31.4686L32.2616 28.7786L31.5566 29.3066L30.6206 11.0369L30.6246 10.2289L30.2806 9.85928H28.6576C28.6146 9.86328 28.5716 9.86588 28.5286 9.86708C27.2757 9.86648 26.2597 8.70189 26.2597 7.26551C26.2597 5.82913 27.2757 4.66464 28.5286 4.66404ZM28.5286 5.04094C27.4577 5.04144 26.5887 6.03752 26.5897 7.26551C26.5897 8.49279 27.4577 9.48768 28.5286 9.48818H28.5326C28.5686 9.48798 28.6046 9.48668 28.6406 9.48428C28.6446 9.48358 28.6476 9.48298 28.6516 9.48228C28.6716 9.48068 28.6906 9.47878 28.7106 9.47648C28.7156 9.47578 28.7206 9.47518 28.7266 9.47448C28.7686 9.46958 28.8106 9.46308 28.8536 9.45498H28.8586C28.8736 9.45128 28.8876 9.44728 28.9016 9.44328C28.9316 9.43688 28.9616 9.42968 28.9916 9.42178C29.0066 9.41868 29.0206 9.41538 29.0346 9.41198C29.0396 9.41068 29.0436 9.40938 29.0486 9.40808C29.1006 9.39098 29.1516 9.37148 29.2026 9.34948L29.2066 9.34758C29.2586 9.32468 29.3096 9.29918 29.3586 9.27138C29.3646 9.26878 29.3696 9.26618 29.3746 9.26358C29.3776 9.26228 29.3816 9.26098 29.3846 9.25968L29.3886 9.25578C29.4386 9.22759 29.4876 9.19698 29.5346 9.16398C29.5386 9.16138 29.5426 9.15879 29.5466 9.15609C29.5486 9.15489 29.5516 9.15348 29.5546 9.15218L29.5566 9.15029C29.5926 9.12369 29.6286 9.09569 29.6636 9.06629C29.6776 9.05549 29.6916 9.04439 29.7046 9.03309C29.7076 9.03049 29.7116 9.02789 29.7146 9.02529L29.7356 9.00579C29.7796 8.96619 29.8206 8.92449 29.8606 8.88079C29.8676 8.87369 29.8736 8.86649 29.8806 8.85929C29.9036 8.83259 29.9266 8.80529 29.9486 8.77719C29.9646 8.75869 29.9806 8.73979 29.9956 8.72059C29.9986 8.71669 30.0006 8.71279 30.0036 8.70889C30.0276 8.67519 30.0516 8.64069 30.0736 8.60539C30.0876 8.58549 30.1016 8.56529 30.1146 8.54479C30.1166 8.54159 30.1186 8.53829 30.1206 8.53509C30.1406 8.50049 30.1606 8.46539 30.1796 8.42959C30.1816 8.42629 30.1836 8.42309 30.1856 8.41979C30.1966 8.39919 30.2076 8.3784 30.2186 8.3573C30.2196 8.3541 30.2206 8.3508 30.2226 8.3476C30.2526 8.2859 30.2796 8.2227 30.3046 8.1581C30.3216 8.1125 30.3366 8.0662 30.3516 8.0194C30.3606 7.991 30.3696 7.9624 30.3786 7.9335C30.3796 7.9296 30.3816 7.9257 30.3826 7.9218C30.3946 7.8734 30.4056 7.8245 30.4156 7.7753C30.4186 7.7623 30.4226 7.7493 30.4256 7.7362C30.4256 7.733 30.4266 7.7297 30.4276 7.7265V7.7226C30.4376 7.6624 30.4466 7.6018 30.4526 7.54091C30.4536 7.53311 30.4556 7.52531 30.4566 7.51751V7.51361C30.4636 7.44091 30.4676 7.36791 30.4686 7.29481C30.4686 7.28511 30.4696 7.27531 30.4706 7.26551C30.4706 6.03662 29.6016 5.04024 28.5286 5.04094ZM35.9296 5.04094C34.8576 5.04144 33.9896 6.03752 33.9896 7.26551V7.29681C33.9906 7.33721 33.9916 7.37761 33.9936 7.41791V7.42181C33.9986 7.49441 34.0066 7.56681 34.0176 7.6386C34.0216 7.6673 34.0276 7.696 34.0326 7.7245C34.0406 7.7697 34.0496 7.8147 34.0606 7.8593C34.0776 7.9294 34.0976 7.9985 34.1206 8.0663C34.1396 8.1206 34.1606 8.174 34.1836 8.2265C34.1886 8.2409 34.1936 8.2552 34.1986 8.2694L34.2006 8.2733C34.2296 8.3382 34.2606 8.40139 34.2946 8.46279L34.2966 8.46469C34.3306 8.52599 34.3686 8.58539 34.4076 8.64249C34.4356 8.68269 34.4656 8.72179 34.4956 8.75969C34.5086 8.77679 34.5216 8.79369 34.5346 8.81039L34.5366 8.81239C34.5816 8.86519 34.6286 8.91539 34.6776 8.96279C34.6846 8.96939 34.6916 8.97589 34.6986 8.98229C34.7406 9.02279 34.7846 9.06129 34.8296 9.09759L34.8336 9.09949C34.8856 9.14029 34.9396 9.17809 34.9956 9.21278L34.9996 9.21468C35.0546 9.24978 35.1116 9.28168 35.1696 9.31038L35.1736 9.31238C35.2326 9.34048 35.2926 9.36528 35.3536 9.38658C35.3876 9.39808 35.4216 9.40848 35.4566 9.41788C35.4846 9.42708 35.5126 9.43548 35.5406 9.44328H35.5446C35.6066 9.45778 35.6686 9.46888 35.7316 9.47648H35.7356C35.7986 9.48388 35.8625 9.48778 35.9255 9.48818H35.9296C37.0015 9.48888 37.8705 8.49369 37.8705 7.26551C37.8715 6.03662 37.0015 5.04024 35.9296 5.04094ZM12.6518 16.4178L12.6618 17.0638L10.0199 19.1388L10.0249 18.4798L12.6518 16.4178ZM12.6718 17.7108L12.6818 18.3538L10.0079 20.4527L10.0139 19.7948L12.6718 17.7108ZM12.6888 18.9998L12.6988 19.6428L9.99397 21.7657L9.99987 21.1107L12.6888 18.9998ZM12.7088 20.2887L12.7188 20.9337L9.98227 23.0797L9.98818 22.4237L12.7088 20.2887ZM12.7268 21.5797L12.7358 22.2267L9.96867 24.3957L9.97447 23.7377L12.7268 21.5797ZM12.7438 22.8707L12.7538 23.5177L9.95498 25.7127L9.96078 25.0567L12.7438 22.8707ZM12.7618 24.1637L13.0058 41.4745C13.0148 43.7605 9.80758 44.0814 9.79868 41.5855L9.94908 26.3727L12.7618 24.1637ZM32.4096 29.8626C32.0556 29.8616 31.7676 30.1486 31.7676 30.5036C31.7676 30.8576 32.0556 31.1456 32.4096 31.1446C32.7636 31.1436 33.0506 30.8576 33.0506 30.5036C33.0506 30.1496 32.7636 29.8626 32.4096 29.8626ZM32.3866 30.1946H32.4096C32.5796 30.1956 32.7176 30.3336 32.7186 30.5036C32.7176 30.6736 32.5796 30.8116 32.4096 30.8116C32.2386 30.8126 32.0996 30.6746 32.0996 30.5036C32.0996 30.3416 32.2246 30.2066 32.3866 30.1946Z" fill="#333333"/>
</svg>

<?xml version="1.0" encoding="UTF-8" standalone="no"?>
<!-- Created with Inkscape (http://www.inkscape.org/) -->
<svg id="svg8" xmlns:rdf="http://www.w3.org/1999/02/22-rdf-syntax-ns#" xmlns="http://www.w3.org/2000/svg" xmlns:osb="http://www.openswatchbook.org/uri/2009/osb" height="48" width="48" version="1.1" xmlns:cc="http://creativecommons.org/ns#" viewBox="0 0 12.7 12.7" xmlns:dc="http://purl.org/dc/elements/1.1/">
 <title id="title4753">UIO-icon</title>
 <metadata id="metadata5">
  <rdf:RDF>
   <cc:Work rdf:about="">
    <dc:format>image/svg+xml</dc:format>
    <dc:type rdf:resource="http://purl.org/dc/dcmitype/StillImage"/>
    <dc:title>UIO-icon</dc:title>
    <dc:creator>
     <cc:Agent>
      <dc:title>Joaquín Urbano</dc:title>
     </cc:Agent>
    </dc:creator>
    <dc:rights>
     <cc:Agent>
      <dc:title>GPL</dc:title>
     </cc:Agent>
    </dc:rights>
   </cc:Work>
  </rdf:RDF>
 </metadata>
 <g id="layer1" fill="#333" transform="translate(0,-284.3)">
  <path id="rect1111" d="m0 0v48h48v-48h-48zm12.184 4.6641c-0.014 1.3359 0.156 3.277 0.234 4.916 0.043 1.1889-0.225 2.1989-0.352 3.2599l-0.033 1.873c-0.001 0.376 0.341 0.392 0.602 0.4l0.01 0.658-2.612 2.049 0.01-1.068c0.933-2.701 0.514-3.9 0.051-5.051l-0.0999-4.8494c0.4589-0.7268 0.9329-1.504 2.1899-2.1875zm16.345 0c1.255-0.0007 2.272 1.1643 2.272 2.6015v0.0293 2.0039l0.56 0.6289h1.739l0.56-0.6289v-2.0019h0.002c-0.001-0.0105-0.001-0.0208-0.002-0.0313 0-1.4364 1.016-2.6009 2.27-2.6015 1.254-0.0007 2.271 1.1643 2.271 2.6015 0 1.4373-1.017 2.6022-2.271 2.6016h-0.004-1.756l-0.334 0.3618-0.01 0.808-0.676 20.682-0.886 0.42 0.127 11.197 0.125-11.127 0.627-0.281-0.27 11.408h-0.482-0.444c-0.141-4.418-0.292-9.306-0.375-13.758l0.955-0.705 0.45-17.836h-1.508l0.793 17.742-0.705 0.528-0.936-18.27 0.004-0.808-0.344-0.3696h-1.623c-0.043 0.004-0.086 0.0066-0.129 0.0078-1.253-0.0006-2.269-1.1652-2.269-2.6016s1.016-2.6009 2.269-2.6015zm0 0.3769c-1.071 0.0005-1.94 0.9966-1.939 2.2246 0 1.2273 0.868 2.2222 1.939 2.2227h0.004c0.036-0.0002 0.072-0.0015 0.108-0.0039 0.004-0.0007 0.007-0.0013 0.011-0.002 0.02-0.0016 0.039-0.0035 0.059-0.0058 0.005-0.0007 0.01-0.0013 0.016-0.002 0.042-0.0049 0.084-0.0114 0.127-0.0195h0.005c0.015-0.0037 0.029-0.0077 0.043-0.0117 0.03-0.0064 0.06-0.0136 0.09-0.0215 0.015-0.0031 0.029-0.0064 0.043-0.0098 0.005-0.0013 0.009-0.0026 0.014-0.0039 0.052-0.0171 0.103-0.0366 0.154-0.0586l0.004-0.0019c0.052-0.0229 0.103-0.0484 0.152-0.0762 0.006-0.0026 0.011-0.0052 0.016-0.0078 0.003-0.0013 0.007-0.0026 0.01-0.0039l0.004-0.0039c0.05-0.0282 0.099-0.0588 0.146-0.0918 0.004-0.0026 0.008-0.0052 0.012-0.0079 0.002-0.0012 0.005-0.0026 0.008-0.0039l0.002-0.0019c0.036-0.0266 0.072-0.0546 0.107-0.084 0.014-0.0108 0.028-0.0219 0.041-0.0332 0.003-0.0026 0.007-0.0052 0.01-0.0078l0.021-0.0195c0.044-0.0396 0.085-0.0813 0.125-0.125 0.007-0.0071 0.013-0.0143 0.02-0.0215 0.023-0.0267 0.046-0.054 0.068-0.0821 0.016-0.0185 0.032-0.0374 0.047-0.0566 0.003-0.0039 0.005-0.0078 0.008-0.0117 0.024-0.0337 0.048-0.0682 0.07-0.1035 0.014-0.0199 0.028-0.0401 0.041-0.0606 0.002-0.0032 0.004-0.0065 0.006-0.0097 0.02-0.0346 0.04-0.0697 0.059-0.1055 0.002-0.0033 0.004-0.0065 0.006-0.0098 0.011-0.0206 0.022-0.0414 0.033-0.0625 0.001-0.0032 0.002-0.0065 0.004-0.0097 0.03-0.0617 0.057-0.1249 0.082-0.1895 0.017-0.0456 0.032-0.0919 0.047-0.1387 0.009-0.0284 0.018-0.057 0.027-0.0859 0.001-0.0039 0.003-0.0078 0.004-0.0117 0.012-0.0484 0.023-0.0973 0.033-0.1465 0.003-0.013 0.007-0.026 0.01-0.0391 0-0.0032 0.001-0.0065 0.002-0.0097v-0.0039c0.01-0.0602 0.019-0.1208 0.025-0.1817 0.001-0.0078 0.003-0.0156 0.004-0.0234v-0.0039c0.007-0.0727 0.011-0.1457 0.012-0.2188 0-0.0097 0.001-0.0195 0.002-0.0293 0-1.2289-0.869-2.2253-1.942-2.2246zm7.401 0c-1.072 0.0005-1.94 0.9966-1.94 2.2246v0.0313c0.001 0.0404 0.002 0.0808 0.004 0.1211v0.0039c0.005 0.0726 0.013 0.145 0.024 0.2168 0.004 0.0287 0.01 0.0574 0.015 0.0859 0.008 0.0452 0.017 0.0902 0.028 0.1348 0.017 0.0701 0.037 0.1392 0.06 0.207 0.019 0.0543 0.04 0.1077 0.063 0.1602 0.005 0.0144 0.01 0.0287 0.015 0.0429l0.002 0.0039c0.029 0.0649 0.06 0.1281 0.094 0.1895l0.002 0.0019c0.034 0.0613 0.072 0.1207 0.111 0.1778 0.028 0.0402 0.058 0.0793 0.088 0.1172 0.013 0.0171 0.026 0.034 0.039 0.0507l0.002 0.002c0.045 0.0528 0.092 0.103 0.141 0.1504 0.007 0.0066 0.014 0.0131 0.021 0.0195 0.042 0.0405 0.086 0.079 0.131 0.1153l0.004 0.0019c0.052 0.0408 0.106 0.0786 0.162 0.1133l0.004 0.0019c0.055 0.0351 0.112 0.067 0.17 0.0957l0.004 0.002c0.059 0.0281 0.119 0.0529 0.18 0.0742 0.034 0.0115 0.068 0.0219 0.103 0.0313 0.028 0.0092 0.056 0.0176 0.084 0.0254h0.004c0.062 0.0145 0.124 0.0256 0.187 0.0332h0.004c0.063 0.0074 0.127 0.0113 0.19 0.0117h0.004c1.072 0.0007 1.941-0.9945 1.941-2.2227 0.001-1.2289-0.869-2.2253-1.941-2.2246zm-23.278 11.377l0.01 0.646-2.642 2.075 0.005-0.659 2.627-2.062zm0.02 1.293l0.01 0.643-2.674 2.099 0.006-0.658 2.658-2.084zm0.017 1.289l0.01 0.643-2.7049 2.123 0.0059-0.655 2.689-2.111zm0.02 1.289l0.01 0.645-2.7366 2.146 0.0059-0.656 2.7207-2.135zm0.018 1.291l0.009 0.647-2.7672 2.169 0.0058-0.658 2.7524-2.158zm0.017 1.291l0.01 0.647-2.7989 2.195 0.0058-0.656 2.7831-2.186zm0.018 1.293l0.244 17.311c0.009 2.286-3.1983 2.607-3.2072 0.111l0.1504-15.213 2.8128-2.209zm19.648 5.699c-0.354-0.001-0.642 0.286-0.642 0.641 0 0.354 0.288 0.642 0.642 0.641s0.641-0.287 0.641-0.641-0.287-0.641-0.641-0.641zm-0.023 0.332h0.023c0.17 0.001 0.308 0.139 0.309 0.309-0.001 0.17-0.139 0.308-0.309 0.308-0.171 0.001-0.31-0.137-0.31-0.308 0-0.162 0.125-0.297 0.287-0.309z" fill-rule="evenodd" transform="matrix(.26458 0 0 .26458 0 284.3)"/>
 </g>
</svg>
